!!!!SEGMENT: pl-kk--kk-i-519--002_lachner-ignaz--offertorium-synu-przedwiecznego-boga.krn
!!!cenid: 18xx:1351
!!!COM: Lachner, Ignaz
!!!COM-rismid: pe64574
!!!CDT: 1807/09/11-1895/02/24
!!!CNT: German
!!!OTL: Offertorium - Synu przedwiecznego Boga
!!!PDT:
!!!AGN: Sacred
!!!SMS-siglum: PL-Kk
!!!SMS-shelfmark: Kk.I.519
!!!SMS-shelfwork: 002 W
!!!SMS-variant:
!!!SMS-altvar:
!!!NIFC-rismid: 1001139231
!!!URL-scan: http://repozytorium.nifc.pl/skany/pl-kk-nut--i-519
!!!ONB-nifc: UWAGA: Offertorium w języku polskim, zakres skanów 0009-0016
!!!key:
**kern	**text	**dynam	**kern	**text	**dynam	**kern	**text	**dynam	**kern	**text
*part4	*part4	*part4	*part3	*part3	*part3	*part2	*part2	*part2	*part1	*part1
*staff4	*staff4	*	*staff3	*staff3	*	*staff2	*staff2	*	*staff1	*staff1
*Ibass	*	*	*Itenor	*	*	*Ialto	*	*	*Isoprn	*
*I"Basso.	*	*	*I"Tenor.	*	*	*I"Alto.	*	*	*I"Soprano.	*
*I'B	*	*	*I'T	*	*	*I'A	*	*	*I'S	*
*clefF4	*	*	*clefC4	*	*	*clefC3	*	*	*clefC1	*
*k[b-]	*	*	*k[b-]	*	*	*k[b-]	*	*	*k[b-]	*
*F:	*	*	*F:	*	*	*F:	*	*	*F:	*
*M3/4	*	*	*M3/4	*	*	*M3/4	*	*	*M3/4	*
!LO:TX:a:t=P:problem:w źródle "Moderato." zapisane przed pierwszym taktem, pod pięciolinią	!	!	!LO:TX:a:t=P:problem:w źródle "Moderato." zapisane przed pierwszym taktem, pod pięciolinią	!	!	!LO:TX:a:t=P:problem:w źródle "Moderato." zapisane przed pierwszym taktem, pod pięciolinią	!	!	!	!
!LO:TX:b:i:t=Moderato.	!	!	!LO:TX:b:i:t=Moderato.	!	!	!LO:TX:b:i:t=Moderato.	!	!	!	!
8C/	Sy-	.	8c\	Sy-	.	8c\	Sy-	.	8c/	Sy-
8C/	-nu	.	8c\	-nu	.	8c\	-nu	.	8c/	-nu
=1	=1	=1	=1	=1	=1	=1	=1	=1	=1	=1
*2\right	*	*	*2\right	*	*	*2\right	*	*	*2\right	*
4.FF/	przed-	.	4.c\	przed-	.	4.f\	przed-	.	4.a\	przed-
8AA/	-wiecz-	.	8c\	-wiecz-	.	8f\	-wiecz-	.	8a\	-wiecz-
8C/	-ne-	.	8c\	-ne-	.	8f\	-ne-	.	8a\	-ne-
8C/	-go	.	8c\	-go	.	8e\	-go	.	8g\	-go
=2	=2	=2	=2	=2	=2	=2	=2	=2	=2	=2
4D\	Bo-	.	8.B-\L	Bo-	.	8.e\L	Bo-	.	8g\L	Bo-
.	.	.	.	.	.	.	.	.	8f\J	.
.	.	.	16A\Jk	.	.	16d\Jk	.	.	.	.
4D\	-ga	.	4A\	-ga,	.	4d\	-ga,	.	4f/	-ga,
8D\	Tys	.	8A\	Tys	.	8d\	Tys	.	8f/	Tys
8D\	nasz	.	8A\	iest	.	8d\	nasz	.	8f/	nasz
=3	=3	=3	=3	=3	=3	=3	=3	=3	=3	=3
4.BB-/	ży-	.	4.B-\	ży-	.	4.f\	ży-	.	4.dd\	Ży-
8BB-/	-wot	.	8d\	-wot	.	8g\	-wot	.	8b-\	-wot
8C/	na-	.	8c\	na-	.	8f\	na-	.	8a\	na-
8C/	-sza	.	8B-\	-sza	.	8e\	-sza	.	8g\	-sza
!	!	!	!	!	!	!	!	!	!LO:LB:g=original	!
=4	=4	=4	=4	=4	=4	=4	=4	=4	=4	=4
4F\	dro-	.	4B-\	dro-	.	4e\	dro-	.	4g\	dro-
4F\	-ga	.	4A\	-ga	.	4f\	-ga,	.	4a\	-ga,
!LO:LB:g=original	!	!	!	!	!	!	!	!	!	!
8E\	Tys	.	8c#X\	Tys	.	8g\	Tys	.	8a\	Tys
8E\	iest	.	8c#\	iest	.	8g\	iest	.	8a\	iest
!	!	!	!LO:LB:g=original	!	!	!LO:LB:g=original	!	!	!	!
=5	=5	=5	=5	=5	=5	=5	=5	=5	=5	=5
4.D\	mo-	.	4.d\	mo-	.	4.f\	mo-	.	4.ff\	mo-
8F\	-ia	.	8f\	-ia	.	8a\	-ja	.	8dd\	-ja
8G\	sło-	.	8e\	sło-	.	8g\	sło-	.	8cc\	sło-
8G\	-dycz	.	8d\	-dycz	.	8f\	-dycz	.	8bn\	-dycz
=6	=6	=6	=6	=6	=6	=6	=6	=6	=6	=6
4G\	chwa-	.	4Bn\	Chwa-	.	4f\	Chwa-	.	4dd\	Chwa-
4C/	-ła	.	4c\	-ła,	.	4e\	-ła	.	4cc\	-ła
!	!	!	!	!	!LO:DY:rj	!	!	!LO:DY:rj	!	!
!	!	!	!	!	!LO:DY:b	!	!	!LO:DY:b	!	!
8C/	ra-	.	8c\	ra-	p	8c\	ra-	p	8cc\	ra-
8C/	-dość	.	8c\	-dość	.	8c\	-dość	.	8cc\	-dość
=7	=7	=7	=7	=7	=7	=7	=7	=7	=7	=7
4.E\	mo-	.	4.c\	mo-	.	4.g\	mo-	.	4.b-\	mo-
8E\	-ie	.	8c\	-ja	.	8g\	-ja	.	8b-\	-ja
8F\	do-	.	8c\	do-	.	8g\	do-	.	8b-\	do-
8F\	-sko-	.	8c\	-sko-	.	8f\	-sko-	.	8a\	-sko-
=8	=8	=8	=8	=8	=8	=8	=8	=8	=8	=8
!LO:N:vis=4	!	!	!	!	!	!	!	!	!	!
4.B-\	-na-	.	4c\	-na-	.	(>8.f\L	-na-	.	8a\L	-na-
.	.	.	.	.	.	.	.	.	8g\J	.
.	.	.	.	.	.	16e\Jk)	.	.	.	.
.	.	.	4c\	-ła,	.	4e\	-ła	.	4g\	-ła,
8B-\	-ła	.	.	.	.	.	.	.	.	.
8B-\	Je-	.	8c\	Je-	.	8e\	Je-	.	8g\	Je-
8B-\	-su	.	8c\	-su	.	8e\	-su	.	8g\	-su
!	!	!	!	!	!	!	!	!	!LO:LB:g=original	!
=9	=9	=9	=9	=9	=9	=9	=9	=9	=9	=9
4.A\	swia-	.	4.c\	swia-	.	4.f\	swia-	.	4.cc\	swia-
8A\	-tło-	.	8c\	-tło-	.	8f\	-tło-	.	8cc\	-tło-
8E\	-sci	.	8c\	-sci	.	8g\	-sci	.	8cc\	-sci
8E\	pra-	.	8c\	pra-	.	8g\	pra-	.	8b-\	pra-
!LO:LB:g=original	!	!	!	!	!	!LO:LB:g=original	!	!	!	!
=10	=10	=10	=10	=10	=10	=10	=10	=10	=10	=10
4F\	-wdzi-	.	4c\	-wdzi-	.	(>8.g\L	-wdzi-	.	8.b-\L	-wdzi-
.	.	.	.	.	.	16f\Jk)	.	.	16a\Jk	.
4F\	-wa	.	4c\	-wa	.	4f\	-wa,	.	4a\	-wa
!	!	!	!	!	!LO:DY:rj	!	!	!	!	!
!	!	!	!	!	!LO:DY:b	!	!	!	!	!
8F\	Tys	.	8F/	Tys	f	8f\	Tys	.	8f/	Tys
8F\	Ła-	.	8F/	Ła-	.	8f\	Ła-	.	8f/	Ła-
!	!	!	!LO:LB:g=original	!	!	!	!	!	!	!
=11	=11	=11	=11	=11	=11	=11	=11	=11	=11	=11
4.F\	-ski	.	4.c\	-ski	.	4.a\	-ski	.	4.ee-X\	-ski
8F\	Kry-	.	8c\	Kry-	.	8a\	Kry-	.	8ee-\	Kry-
8F\	-ni-	.	8d\	-ni-	.	8a\	-ni-	.	8dd\	-ni-
8F\	-ca	.	8e-X\	-ca	.	8a\	-ca	.	8cc\	-ca
=12	=12	=12	=12	=12	=12	=12	=12	=12	=12	=12
4B-\	ży-	.	8.e-X\L	ży-	.	(>8.a\L	ży-	.	(>8.cc#X\L	ży-
.	.	.	16d\J	.	.	16b-\Jk)	.	.	16dd\Jk)	.
4B-\	-wa	.	4d\	-wa	.	4b-\	-wa,	.	4dd\	-wa
8B-\	w_To-	.	8f\	w_To-	.	8b-\	w_To-	.	8dd\	w_To-
8B-\	-bie	.	8f\	-bie	.	8b-\	-bie	.	8dd\	-bie
=13	=13	=13	=13	=13	=13	=13	=13	=13	=13	=13
4.B-\	się	.	4d\	się	.	4b-\	się	.	4ff\	się
.	.	.	4d\	mi-	.	4b-\	mi-	.	4ff\	mi-
8B-\	Mi-	.	.	.	.	.	.	.	.	.
8B-\	-ło-	.	8f\	-ło-	.	8b-\	-ło-	.	8dd\	-ło-
8B-\	-scią	.	8f\	-scią	.	8b-\	-scią	.	8dd\	-scią
!	!	!	!	!	!	!	!	!	!LO:LB:g=original	!
=14	=14	=14	=14	=14	=14	=14	=14	=14	=14	=14
4F\	po-	.	4f\	po-	.	4a\	po-	.	4cc\	po-
4F\	-ie	.	4f\	-ie	.	4a\	-ie	.	4cc\	-ie,
!	!	!	!	!	!	!LO:LB:g=original	!	!	!	!
8AA/	To-	.	8e-X\	To-	.	8f#\	To-	.	8cc\	To-
8AA/	-bą	.	8e-\	-bą	.	8f#\	-bą	.	8cc\	-bą
=15	=15	=15	=15	=15	=15	=15	=15	=15	=15	=15
4BB-/	ży-	.	4d\	ży-	.	4f#X\	ży-	.	4cc\	ży-
4BB-/	-wie	.	4d\	-wie	.	4g\	-wie	.	4b-\	-wie
!LO:LB:g=original	!	!	!	!	!	!	!	!	!	!
8BBn/	ser-	.	8d\	ser-	.	8fn\	ser-	.	8.a\	Ser-
8BB/	-ce	.	8d\	-ce	.	8f\	-ce	.	.	.
.	.	.	.	.	.	.	.	.	16g\	-ce
=16	=16	=16	=16	=16	=16	=16	=16	=16	=16	=16
4C/	mo-	.	4c\	mo-	.	4e\	mo-	.	4g\	mo-
4C/	-ie,	.	4c\	-ie,	.	4e\	-ie,	.	4g\	-ie,
!	!	!LO:DY:rj	!	!	!	!	!	!	!	!
!	!	!LO:DY:b	!	!	!	!	!	!	!	!
8C/	w_To-	p	8c\	w_To-	.	8c\	w_To-	.	8c/	w_To-
8C/	-bie	.	8c\	-bie	.	8c\	-bie	.	8c/	-bie
!	!	!	!LO:LB:g=original	!	!	!	!	!	!	!
=17	=17	=17	=17	=17	=17	=17	=17	=17	=17	=17
4.F\	się	.	4.A\	się	.	4.c\	się	.	4.f/	się
8F\	mi-	.	8c\	mi-	.	8f\	mi-	.	8a\	mi-
8C/	-ło-	.	8c\	-ło-	.	8e\	-ło-	.	8g\	-ło-
8C/	-scią	.	8c\	-scią	.	8g\	-scią	.	8b-\	-scią
=18	=18	=18	=18	=18	=18	=18	=18	=18	=18	=18
4F\	po-	.	4c\	po-	.	4f\	po-	.	4a\	po-
4F\	-ie	.	4c\	-ie	.	4f\	-ie,	.	4a\	-je,
!	!	!LO:DY:rj	!	!	!	!	!	!	!	!
!	!	!LO:DY:b	!	!	!	!	!	!	!	!
8C/	To-	f	8c\	To-	.	8c\	To-	.	8cc\	To-
8C/	-bą	.	8c\	-bą	.	8c\	-bą	.	8cc\	-bą
=19	=19	=19	=19	=19	=19	=19	=19	=19	=19	=19
4.FF/	ży-	.	4.c\	ży-	.	4.a\	ży-	.	4.ff\	ży-
8AA/	-wie	.	8c\	-wie	.	8f\	-wie	.	8cc\	-wie
!	!	!	!	!	!	!LO:LB:g=original	!	!	!LO:LB:g=original	!
!	!	!	!	!	!LO:DY:rj	!	!	!	!	!
!	!	!	!	!	!LO:DY:b	!	!	!	!	!
8C/	ser-	.	8c\	ser-	p	8f\	ser-	.	8a\	ser-
8C/	-ce	.	8B-\	-ce	.	8c\	-ce	.	8g\	-ce
=20	=20	=20	=20	=20	=20	=20	=20	=20	=20	=20
4F\	mo-	.	4A\	mo-	.	4c\	mo-	.	4f/	mo-
4FF/	-ie.	.	4A\	-ie,	.	4c\	-je	.	4f/	-ie,
8C/	Je-	.	8c\	Je-	.	8c\	Je-	.	8c/	Je-
8C/	-su	.	8c\	-su	.	8c\	-su	.	8c/	-su
!LO:LB:g=original	!	!	!	!	!	!	!	!	!	!
=21	=21	=21	=21	=21	=21	=21	=21	=21	=21||	=21
4.FF/	Krő-	.	4.c\	Kro-	.	4.f\	Krö-	.	4.a\	Krö-
8AA/	-lu	.	8c\	-lu	.	8f\	-lu	.	8a\	-lu
8C/	Nie-	.	8c\	Nie-	.	8f\	Nie-	.	8a\	Nie-
!	!	!	!	!	!	!	!	!	!LO:TX:t=P:problem:kreska taktowa podwójna	!
8C/	-ba	.	8B-\	-ba	.	8f\	-ba	.	8g\	-ba
=22	=22	=22	=22	=22	=22	=22	=22	=22	=22	=22
4D\	Zie-	.	8B-\L	zie-	.	8.e\L	Zie-	.	8g/L	zie-
.	.	.	8A\J	.	.	.	.	.	8f/J	.
.	.	.	.	.	.	16d\Jk	.	.	.	.
4D\	-mi	.	4A\	-mi	.	4d\	-mi	.	4f/	-mi
!	!	!	!LO:LB:g=original	!	!	!	!	!	!	!
8D\	z_li-	.	8A\	zli-	.	8d\	zli-	.	8f/	zli-
8D\	-tui	.	8A\	-tuj	.	8d\	-tui	.	8f/	-tuj
=23	=23	=23	=23	=23	=23	=23	=23	=23	=23	=23
4.BB-/	się	.	4.B-\	się	.	4.f\	się	.	4.dd\	się
8BB-/	nad	.	8d\	nad	.	8g\	nad	.	8b-\	nad
8C/	Dzie-	.	8c\	Dzie-	.	8f\	Dzie-	.	8a\	dzie-
8C/	-cmi	.	8B-\	-cmi	.	8e\	-cmi	.	8g\	-ćmi
=24	=24	=24	=24	=24	=24	=24	=24	=24	=24	=24
4F\	twe-	.	4B-\	twe-	.	4e\	twe-	.	4g\	twe-
4F\	-mi	.	4A\	-mi,	.	4f\	-mi	.	4a\	-mi
!	!	!	!	!	!	!	!	!	!LO:LB:g=original	!
8E\	Tys	.	8c#X\	tys	.	8g\	Tys	.	8a\	Tys
8E\	nasz	.	8c#\	nasz	.	8g\	nasz	.	8a\	nasz
!	!	!	!	!	!	!LO:LB:g=original	!	!	!	!
=25	=25	=25	=25	=25	=25	=25	=25	=25	=25	=25
4.D\	Bőg	.	4.d\	Bőg	.	4.f\	Bőg	.	4.ff\	Bög
8F\	i	.	8f\	i	.	8a\	i	.	8dd\	i
!	!	!	!LO:N:vis=8.	!	!	!	!	!	!	!
8G\	Pan	.	8e\	Pan	.	8g\	Pan	.	8cc\	Pan
8G\	praw-	.	8d\	od	.	8f\	od	.	8bn\	od
=26	=26	=26	=26	=26	=26	=26	=26	=26	=26	=26
4G\	-dzi-	.	4Bn\	wie-	.	4f\	Wie-	.	4dd\	wie-
4C/	-wy	.	4c\	-kow	.	4e\	-kow	.	4cc\	-kow
!	!	!LO:DY:rj	!	!	!LO:DY:rj	!	!	!LO:DY:rj	!	!
!	!	!LO:DY:b	!	!	!LO:DY:b	!	!	!LO:DY:b	!	!
8C/	Zba-	p	8c\	Zba-	p	8c\	Zba-	p	8cc\	Zba-
8C/	-wca	.	8c\	-wco	.	8c\	-wco	.	8cc\	-wca
!LO:LB:g=original	!	!	!	!	!	!	!	!	!	!
=27	=27	=27	=27	=27	=27	=27	=27	=27	=27	=27
4.E\	grze-	.	4.c\	grze-	.	4.g\	grze-	.	4.b-\	grze-
8E\	-szne-	.	8c\	-szne-	.	8g\	-szne-	.	8b-\	-szne-
8F\	-go	.	8c\	-go	.	8g\	-go	.	8b-\	-go
8F\	Czło-	.	8c\	Czło-	.	8f\	Czło-	.	8a\	czło-
!	!	!	!LO:LB:g=original	!	!	!	!	!	!	!
=28	=28	=28	=28	=28	=28	=28	=28	=28	=28	=28
4B-\	-wie-	.	4c\	-wie-	.	8.f\L	-wie-	.	8a\L	-wie-
.	.	.	.	.	.	.	.	.	8g\J	.
.	.	.	.	.	.	16e\Jk	.	.	.	.
4B-\	-ka	.	4c\	-ka,	.	4e\	-ka	.	4g\	-ka
8B-\	wszel-	.	8c\	wszel-	.	8e\	wszel-	.	8g\	wszel-
8B-\	-kiey	.	8c\	-kiey	.	8e\	-kiey	.	8g\	-kiey
=29	=29	=29	=29	=29	=29	=29	=29	=29	=29	=29
4.A\	Cno-	.	4.c\	Cno-	.	4.f\	Cno-	.	4.cc\	Cno-
8A\	-ty	.	8c\	-ty	.	8f\	-ty	.	8cc\	-ty
8E\	do-	.	8c\	do-	.	8g\	do-	.	8cc\	do-
8E\	-sko-	.	8c\	-sko-	.	8g\	-sko-	.	8b-\	-sko-
!	!	!	!	!	!	!	!	!	!LO:LB:g=original	!
=30	=30	=30	=30	=30	=30	=30	=30	=30	=30	=30
4F\	-na-	.	4c\	-na-	.	8.g\L	-na-	.	8.b-\L	-na-
.	.	.	.	.	.	16f\Jk	.	.	16a\Jk	.
4F\	-ły	.	4c\	-ły	.	4f\	-ły	.	4a\	-ły
!	!	!	!	!	!	!LO:LB:g=original	!	!	!	!
!	!	!LO:DY:rj	!	!	!LO:DY:rj	!	!	!	!	!
!	!	!LO:DY:b	!	!	!LO:DY:b	!	!	!	!	!
8F\	Wzo-	f	8F/	Wzo-	f	8f\	Wzo-	.	8f/	wzo-
8F\	-rze,	.	8F/	-rze	.	8f\	-rze	.	8f/	-rze
=31	=31	=31	=31	=31	=31	=31	=31	=31	=31	=31
4.F\	Je-	.	4.c\	Je-	.	4.a\	Je-	.	4.ee-X\	Je-
8F\	-su	.	8c\	-su	.	8a\	-su	.	8ee-\	-su
8F\	Kro-	.	8.c\L	Kro-	.	8a\	Kro-	.	8dd\	Kro-
8F\	-lu	.	.	.	.	8a\	-lu	.	8cc\	-lu
.	.	.	16e-X\Jk	-lu	.	.	.	.	.	.
=32	=32	=32	=32	=32	=32	=32	=32	=32	=32	=32
4B-\	chwa-	.	8.e-X\L	chwa-	.	8.a\L	Chwa-	.	8.cc#X\L	Chwa-
.	.	.	16d\Jk	.	.	16b-\Jk	.	.	16dd\Jk	.
4B-\	-ły	.	4d\	-ły	.	4b-\	-ły,	.	4dd\	-ły
!LO:LB:g=original	!	!	!	!	!	!	!	!	!	!
8B-\	kto-	.	8f\	kto-	.	8b-\	Kto-	.	8dd\	kto-
8B-\	-rys	.	8f\	-rys	.	8b-\	-rys	.	8dd\	-rys
!	!	!	!LO:LB:g=original	!	!	!	!	!	!	!
=33	=33	=33	=33	=33	=33	=33	=33	=33	=33	=33
4.B-\	wstą-	.	4d\	wstą-	.	4b-\	wstą-	.	4ff\	wstą-
.	.	.	4d\	-pił	.	4b-\	-pił	.	4ff\	-pił
8B-\	-pił	.	.	.	.	.	.	.	.	.
8B-\	na	.	8f\	na	.	8b-\	na	.	8dd\	na
8B-\	Nie-	.	8f\	Nie-	.	8b-\	Nie-	.	8dd\	Nie-
=34	=34	=34	=34	=34	=34	=34	=34	=34	=34	=34
4F\	-bio-	.	4.f\	-bio-	.	4a\	-bio-	.	4cc\	-bio-
4F\	-sa	.	.	.	.	4a\	-sy	.	4cc\	-sy
.	.	.	8f\	-sa	.	.	.	.	.	.
8AA/	a-	.	8e-X\	a-	.	8f#X\	a-	.	8cc\	a-
8AA/	-niel-	.	8e-\	-niel-	.	8f#\	-niel-	.	8cc\	-niel-
!	!	!	!	!	!	!	!	!	!LO:LB:g=original	!
=35	=35	=35	=35	=35	=35	=35	=35	=35	=35	=35
4BB-/	-skie-	.	4d\	-skie-	.	4f#X\	-skie-	.	4cc\	-skie-
4BB-/	-mi	.	4d\	-mi	.	4g\	-mi	.	4b-\	-mi
8BBn/	wiel-	.	8d\	chwa-	.	8fn\	wiel-	.	8.a\	chwa-
8BB/	-bion	.	8d\	-lon	.	8f\	-bion	.	.	.
.	.	.	.	.	.	.	.	.	16g\	-lon
!	!	!	!	!	!	!LO:LB:g=original	!	!	!	!
=36	=36	=36	=36	=36	=36	=36	=36	=36	=36	=36
4C/	gło-	.	4c\	gło-	.	4e\	gło-	.	4g\	gło-
4C/	-[sy]	.	4c\	-sy	.	4e\	-sy	.	4g\	-sy
!	!	!LO:DY:rj	!	!	!	!	!	!	!	!
!	!	!LO:DY:b	!	!	!	!	!	!	!	!
8C/	kto-	p	8c\	kto-	.	8c\	Kto-	.	8c/	Kto-
8C/	-rys	.	8c\	-rys	.	8c\	-rys	.	8c/	-rys
=37	=37	=37	=37	=37	=37	=37	=37	=37	=37	=37
4.F\	wstą-	.	4.A\	wstą-	.	4.c\	wstą-	.	4.f/	wstą-
8F\	-pił	.	8c\	-pił	.	8f\	-pił	.	8a\	-pił
8C/	na	.	8c\	na	.	8e\	na	.	8g\	na
8C/	Nie-	.	8c\	Nie-	.	8g\	Nie-	.	8b-\	Nie-
!LO:LB:g=original	!	!	!	!	!	!	!	!	!	!
=38	=38	=38	=38	=38	=38	=38	=38	=38	=38	=38
4F\	-bio-	.	4c\	-bio-	.	4f\	-bio-	.	4a\	-bio-
4F\	-sy	.	4c\	-sy	.	4f\	-sy	.	4a\	-sy
!	!	!	!LO:LB:g=original	!	!	!	!	!	!	!
!	!	!LO:DY:rj	!	!	!	!	!	!	!	!
!	!	!LO:DY:b	!	!	!	!	!	!	!	!
8C/	a-	p	8c\	a-	.	8c\	a-	.	8cc\	a-
8C/	-niel-	.	8c\	-niel-	.	8c\	-niel-	.	8cc\	-niel-
=39	=39	=39	=39	=39	=39	=39	=39	=39	=39	=39
4.FF/	-skie-	.	4.c\	-skie-	.	4.a\	-skie-	.	4.ff\	-skie-
8AA/	-mi	.	8c\	-mi	.	8f\	-mi	.	8cc\	-mi
8C/	wiel-	.	8c\	Chwa-	.	8f\	wiel-	.	8a\	chwa-
8C/	-bion	.	8B-\	-lon	.	8c\	-bion	.	8g\	-lon
=40	=40	=40	=40	=40	=40	=40	=40	=40	=40	=40
4F\	gło-	.	4A\	glo-	.	4c\	gło-	.	4f/	gło-
4FF/	-sy.	.	4A\	-sy.	.	4c\	-sy	.	4f/	-sy.
!	!	!	!	!	!	!	!	!	!LO:LB:g=original	!
8C/	zli-	.	8c\	Zli-	.	8c\	zli-	.	8c/	zli-
8C/	-tui	.	8c\	-tui	.	8c\	-tui	.	8c/	-tui
=41	=41	=41	=41	=41	=41	=41	=41	=41	=41	=41
4.FF/	się	.	4.c\	się	.	4.f\	się	.	4.a\	się
8AA/	nad	.	8c\	nad	.	8f\	nad	.	8a\	nad
8C/	Dzie-	.	8c\	Dzie-	.	8f\	Dzie-	.	8a\	Dzie-
8C/	-cmi	.	8B-\	-cmi	.	8f\	-cmi	.	8g\	-cmi
!	!	!	!	!	!	!LO:LB:g=original	!	!	!	!
=42	=42	=42	=42	=42	=42	=42	=42	=42	=42	=42
!	!	!	!	!	!	!LO:N:vis=8	!	!	!	!
4D\	swe-	.	8.B-\L	swe-	.	8.e\L	twe-	.	8g\L	twe-
.	.	.	.	.	.	.	.	.	8f\J	.
.	.	.	16A\Jk	.	.	16d\Jk	.	.	.	.
4D\	-mi	.	4A\	-mi	.	4d\	-mi,	.	4f/	-mi,
8D\	bądź	.	8A\	bądz	.	8d\	bądz	.	8f/	bądz
!	!	!	!LO:N:vis=8.	!	!	!	!	!	!	!
8D\	mi-	.	8A\	mi-	.	8d\	mi-	.	8f/	mi-
=43	=43	=43	=43	=43	=43	=43	=43	=43	=43	=43
4.BB-/	-ło-	.	4.B-\	-ło-	.	4.f\	-ło-	.	4.dd\	-ło-
8BB-/	-sciw	.	8d\	-sciw	.	8g\	-sciw	.	8b-\	-sciw
!LO:LB:g=original	!	!	!	!	!	!	!	!	!	!
8C/	nad	.	8c\	nad	.	8f\	nad	.	8a\	nad
8C/	grze-	.	8B-\	grze-	.	8e\	grze-	.	8g\	grze-
!	!	!	!LO:LB:g=original	!	!	!	!	!	!	!
=44	=44	=44	=44	=44	=44	=44	=44	=44	=44	=44
4F\	-szne-	.	4B-\	-szne-	.	4e\	-szne-	.	4g\	-szne-
4F\	-mi,	.	4A\	-mi.	.	4f\	-mi,	.	4a\	-mi,
8E\	ia-	.	8c#X\	ia-	.	8g\	ia-	.	8a\	ia-
8E\	-kos	.	8c#\	-kos	.	8g\	-kos	.	8a\	-kos
=45	=45	=45	=45	=45	=45	=45	=45	=45	=45	=45
4.D\	rzekł	.	4.d\	rzekł	.	4.f\	rzekł	.	4.ff\	rzekł
8F\	mię-	.	8f\	mię-	.	8a\	mię-	.	8dd\	mię-
8G\	-dzy	.	8e\	-dzy	.	8g\	-dzy	.	8cc\	-dzy
8G\	U-	.	8d\	U-	.	8f\	U-	.	8bn\	U-
!	!	!	!	!	!	!	!	!	!LO:LB:g=original	!
=46	=46	=46	=46	=46	=46	=46	=46	=46	=46	=46
4G\	-cznia-	.	4Bn\	-cznia-	.	4f\	-cznia-	.	4dd\	-cznia-
4C/	-mi	.	4c\	-mi,	.	4e\	-mi,	.	4cc\	-mi,
!	!	!LO:DY:rj	!	!	!	!	!	!LO:DY:rj	!	!
!	!	!LO:DY:b	!	!	!	!	!	!LO:DY:b	!	!
8C/	nie	p	8c\	nie	.	8c\	nie	p	8cc\	nie
8C/	bę-	.	8c\	bę-	.	8c\	będzie-	.	8cc\	bę-
=47	=47	=47	=47	=47	=47	=47	=47	=47	=47	=47
4.E\	-dzie-	.	4.c\	-dzie-	.	4.g\	-cie	.	4.b-\	-dzie-
8E\	-cie	.	8c\	-cie	.	8g\	sie-	.	8b-\	-cie
!	!	!	!	!	!	!LO:LB:g=original	!	!	!	!
8F\	sie-	.	8c\	Sie-	.	8g\	-ro-	.	8b-\	sie-
8F\	-ro-	.	8c\	-ro-	.	8f\	-ta-	.	8a\	-ro-
=48	=48	=48	=48	=48	=48	=48	=48	=48	=48	=48
!LO:SIC:l:s=-ta-	!	!	!	!	!	!	!	!	!	!
4B-\	-ta-	.	4c\	-ta-	.	8.f\L	.	.	8a\L	-ta-
.	.	.	.	.	.	.	.	.	8g\J	.
.	.	.	.	.	.	16e\Jk	.	.	.	.
4B-\	-mi	.	4c\	-mi.	.	4e\	-mi,	.	4g\	-mi
8B-\	o-	.	8c\	o-	.	8e\	o-	.	8g\	o-
8B-\	-bys	.	8c\	-bys	.	8e\	-bys	.	8g\	-bys
!LO:LB:g=original	!	!	!LO:LB:g=original	!	!	!	!	!	!	!
=49	=49	=49	=49	=49	=49	=49	=49	=49	=49	=49
4.A\	i	.	4.c\	i	.	4.f\	i	.	4.cc\	i
8A\	nam	.	8c\	nam	.	8f\	nam	.	8cc\	nam
8E\	Ła-	.	8c\	Ła-	.	8g\	Ła-	.	8cc\	ła-
8E\	-ske	.	8c\	-ske	.	8g\	-ske	.	8b-\	-ske
=50	=50	=50	=50	=50	=50	=50	=50	=50	=50	=50
4F\	zia-	.	4c\	zja-	.	8.g\L	zia-	.	8.b-\L	zja-
.	.	.	.	.	.	16f\Jk	.	.	16a\Jk	.
4F\	-wił	.	4c\	-wil	.	4f\	-wił,	.	4a\	-wił
!	!	!LO:DY:rj	!	!	!LO:DY:rj	!	!	!	!	!
!	!	!LO:DY:b	!	!	!LO:DY:b	!	!	!	!	!
8F\	i	f	8F/	i	f	8f\	i	.	8f/	i
8F\	nam	.	8F/	nam	.	8f\	nam	.	8f/	nam
!	!	!	!	!	!	!	!	!	!LO:LB:g=original	!
=51	=51	=51	=51	=51	=51	=51	=51	=51	=51	=51
4.F\	Je-	.	4.c\	Je-	.	4.a\	Je-	.	4.ee-X\	Je-
8F\	-su	.	8c\	-su	.	8a\	-su	.	8ee-\	-su
8F\	bło-	.	8d\	bło-	.	8a\	bło-	.	8dd\	bło-
8F\	-go-	.	8e-X\	-go-	.	8a\	-go-	.	8cc\	-go-
=52	=52	=52	=52	=52	=52	=52	=52	=52	=52	=52
4B-\	-sła-	.	8.e-X\L	-sła-	.	8.a\L	-sła-	.	(>8.cc#X\L	-sła-
.	.	.	16d\Jk	.	.	16b-\Jk	.	.	16dd\Jk)	.
4B-\	-wił	.	4d\	-wił	.	4b-\	-wił	.	4dd\	-wił
8B-\	przyim	.	8f\	przyim	.	8b-\	przyim	.	8dd\	przyim
8B-\	nas	.	8f\	nas	.	8b-\	nas	.	8dd\	nas
!	!	!	!	!	!	!LO:LB:g=original	!	!	!	!
=53	=53	=53	=53	=53	=53	=53	=53	=53	=53	=53
4.B-\	Pa-	.	4d\	Pa-	.	4b-\	Pa-	.	4ff\	Pa-
.	.	.	4d\	-nie	.	4b-\	-nie	.	4ff\	-nie
8B-\	-nie	.	.	.	.	.	.	.	.	.
8B-\	pro-	.	8f\	pro-	.	8b-\	pro-	.	8dd\	pro-
8B-\	-sim	.	8f\	-sim	.	8b-\	-sim	.	8dd\	-sim
!LO:LB:g=original	!	!	!LO:LB:g=original	!	!	!	!	!	!	!
=54	=54	=54	=54	=54	=54	=54	=54	=54	=54	=54
!	!	!	!	!	!	!	!	!	!LO:N:vis=4.	!
4F\	cie-	.	4f\	cie-	.	4a\	cie-	.	4cc\	cie-
4F\	-bie	.	4f\	-bie	.	4a\	-bie	.	4cc\	-bie
8AA/	dai	.	8e-X\	daj	.	8f#X\	daj	.	8cc\	dai
8AA/	nam	.	8e-\	nam	.	8f#\	nam	.	8cc\	nam
=55	=55	=55	=55	=55	=55	=55	=55	=55	=55	=55
4BB-/	twe	.	4d\	Twe	.	4f#X\	twe	.	4cc\	Twe
4BB-/	kro-	.	4d\	kro-	.	4g\	Kro-	.	4b-\	kro-
8BBn/	-le-	.	8d\	-le-	.	8fn\	-le-	.	8.a\	-le-
8BB/	-stwo	.	8d\	-stwo	.	8f\	-stwo	.	.	.
.	.	.	.	.	.	.	.	.	16g\	-stwo
!	!	!	!	!	!	!	!	!	!LO:LB:g=original	!
=56	=56	=56	=56	=56	=56	=56	=56	=56	=56	=56
4C/	w_Nie-	.	4c\	w_Nie-	.	4e\	w_Nie-	.	4g\	w_nie-
4C/	-bie	.	4c\	-bie,	.	4e\	-bie	.	4g\	-bie
8C/	przyim	.	8c\	przyim	.	8c\	przyim	.	8c/	przyim
8C/	nas	.	8c\	nas	.	8c\	nas	.	8c/	nas
=57	=57	=57	=57	=57	=57	=57	=57	=57	=57	=57
4.F\	Pa-	.	4.A\	Pa-	.	4.c\	Pa-	.	4.f/	Pa-
8F\	-nie	.	8c\	-nie	.	8f\	-nie	.	8a\	-nie
8C/	pro-	.	8c\	pro-	.	8e\	pro-	.	8g\	pro-
8C/	-sim	.	8c\	-sim	.	8g\	-sim	.	8b-\	-sim
!	!	!	!	!	!	!LO:LB:g=original	!	!	!	!
=58	=58	=58	=58	=58	=58	=58	=58	=58	=58	=58
4F\	cie-	.	4c\	cie-	.	4f\	cie-	.	4a\	cie-
4F\	-bie	.	4c\	-bie	.	4f\	-bie	.	4a\	-bie
!	!	!LO:DY:rj	!	!	!	!	!	!	!	!
!	!	!LO:DY:b	!	!	!	!	!	!	!	!
8C/	dai	f	8c\	daj	.	8c\	daj	.	8cc\	daj
8C/	nam	.	8c\	nam	.	8c\	nam	.	8cc\	nam
!	!	!	!LO:LB:g=original	!	!	!	!	!	!	!
=59	=59	=59	=59	=59	=59	=59	=59	=59	=59	=59
4.FF/	Twe	.	4.c\	Twe	.	4.a\	Twe	.	4.ff\	Twe
8AA/	Kro-	.	8c\	Krò-	.	8f\	Kro-	.	8cc\	Kro-
!LO:LB:g=original	!	!	!	!	!	!	!	!	!	!
8C/	-le-	.	8c\	-le-	.	8f\	-le-	.	8a\	-le-
8C/	-stwo	.	8B-\	-stwo	.	8c\	-stwo	.	8g\	-stwo
=60	=60	=60	=60	=60	=60	=60	=60	=60	=60	=60
4F\	w_Nie-	.	4A\	w_Nie-	.	4c\	w_Nie-	.	4f/	w_Nie-
4FF/	-bie.	.	4A\	-bie	.	4c\	-bie	.	4f/	-bie
==	==	==	==	==	==	==	==	==	==	==
*-	*-	*-	*-	*-	*-	*-	*-	*-	*-	*-
!!!system-decoration: [(s1,s2,s3,s4)]
!!!RDF**kern: > = above
!!!RDF**kern: < = below
!!!EED: Antoni Szymański
!!!EST: 2021-01-07
!!!AIN: 1 alto 1 bass 1 soprn 1 tenor
!!!ENC: Andrzej Kubiczek
!!!END: 2021-01-03
